assets/dist/images/home/logos/bubble-logo-vero.svg

<svg xmlns="http://www.w3.org/2000/svg" xmlns:xlink="http://www.w3.org/1999/xlink" width="77" height="50" viewBox="0 0 77 50">
  <defs>
    <rect id="bubble-logo-vero-a" width="76.896" height="17.626" x="0" y="0"/>
    <rect id="bubble-logo-vero-c" width="76.896" height="17.626" x="0" y="0"/>
    <rect id="bubble-logo-vero-e" width="76.896" height="17.626" x="0" y="0"/>
    <rect id="bubble-logo-vero-g" width="76.896" height="17.626" x="0" y="0"/>
    <rect id="bubble-logo-vero-i" width="76.896" height="17.626" x="0" y="0"/>
    <rect id="bubble-logo-vero-k" width="76.896" height="17.626" x="0" y="0"/>
    <rect id="bubble-logo-vero-m" width="76.896" height="17.626" x="0" y="0"/>
  </defs>
  <g fill="none" fill-rule="evenodd" transform="translate(0 15)">
    <mask id="bubble-logo-vero-b" fill="#fff">
      <use xlink:href="#bubble-logo-vero-a"/>
    </mask>
    <path fill="#262626" fill-rule="nonzero" d="M37.4769072,4.6922976 C35.9239536,4.6922976 34.3933344,5.3590032 33.2248176,6.6697776 L33.2248176,0.205848 L30.9123216,0.205848 L30.9123216,11.0882736 C30.9123216,11.0885328 30.9123216,11.088792 30.9123216,11.0890944 C30.9123216,14.621904 33.7762224,17.4858048 37.3090752,17.4858048 C40.8418848,17.4858048 43.7057856,14.621904 43.7057856,11.0890944 C43.7057856,7.5562848 41.0097168,4.6922976 37.4769072,4.6922976 M37.3090752,15.0220224 C35.136936,15.0220224 33.3760608,13.2611472 33.3760608,11.0890512 C33.3760608,8.916912 35.136936,7.1560368 37.3090752,7.1560368 C39.4812144,7.1560368 41.2420896,8.916912 41.2420896,11.0890512 C41.2420896,13.2611904 39.4812144,15.0220224 37.3090752,15.0220224" mask="url(#bubble-logo-vero-b)"/>
    <mask id="bubble-logo-vero-d" fill="#fff">
      <use xlink:href="#bubble-logo-vero-c"/>
    </mask>
    <path fill="#262626" fill-rule="nonzero" d="M51.8041008,4.6922976 C50.2511472,4.6922976 48.720528,5.3590032 47.551968,6.6697776 L47.551968,0.205848 L45.2395152,0.205848 L45.2395152,11.0882736 C45.2395152,11.0885328 45.2395152,11.088792 45.2395152,11.0890944 C45.2395152,14.621904 48.103416,17.4858048 51.6362688,17.4858048 C55.1690352,17.4858048 58.0329792,14.621904 58.0329792,11.0890944 C58.0329792,7.5562848 55.3368672,4.6922976 51.8041008,4.6922976 M51.6362688,15.0220224 C49.4641296,15.0220224 47.7032544,13.2611472 47.7032544,11.0890512 C47.7032544,8.916912 49.4641296,7.1560368 51.6362688,7.1560368 C53.8083648,7.1560368 55.56924,8.916912 55.56924,11.0890512 C55.56924,13.2611904 53.8083648,15.0220224 51.6362688,15.0220224" mask="url(#bubble-logo-vero-d)"/>
    <mask id="bubble-logo-vero-f" fill="#fff">
      <use xlink:href="#bubble-logo-vero-e"/>
    </mask>
    <path fill="#262626" fill-rule="nonzero" d="M17.9005248,12.2095296 L17.9005248,5.03928 L20.3808096,5.03928 L20.3808096,12.1870224 C20.3808096,14.013432 21.440592,15.1859232 23.2219008,15.1859232 C25.0257168,15.1859232 26.062992,14.0584896 26.062992,12.1870224 L26.062992,5.03928 L28.565784,5.03928 L28.565784,12.2095296 C28.565784,15.5240928 26.5590144,17.4858048 23.2219008,17.4858048 C19.9749024,17.4858048 17.9005248,15.4564848 17.9005248,12.2095296" mask="url(#bubble-logo-vero-f)"/>
    <mask id="bubble-logo-vero-h" fill="#fff">
      <use xlink:href="#bubble-logo-vero-g"/>
    </mask>
    <rect width="2.48" height="16.987" x="60.028" y=".206" fill="#262626" fill-rule="nonzero" mask="url(#bubble-logo-vero-h)"/>
    <mask id="bubble-logo-vero-j" fill="#fff">
      <use xlink:href="#bubble-logo-vero-i"/>
    </mask>
    <path fill="#262626" fill-rule="nonzero" d="M76.5488016,12.0743136 L67.0560336,12.0743136 C67.41684,13.9683312 68.7471408,15.2535744 71.0921664,15.2535744 C72.4676112,15.2535744 74.1361248,14.7349584 75.2185008,13.945824 L76.2557328,15.7721472 C75.0155472,16.6966704 73.0539216,17.4632544 71.0019648,17.4632544 C66.4472592,17.4632544 64.4855472,14.2839936 64.4855472,11.0821824 C64.4855472,9.2557728 65.049264,7.7450256 66.199248,6.5499408 C67.3491888,5.3548992 68.8599792,4.7461248 70.6863024,4.7461248 C72.4224672,4.7461248 73.8655632,5.2872912 74.9704464,6.392088 C76.0753296,7.4969712 76.63896,8.9851248 76.63896,10.8791424 C76.63896,11.2174848 76.6163664,11.6233056 76.5488016,12.0743136 M67.0560336,10.0449072 L74.1361248,10.0449072 C73.9332576,8.1283392 72.5127552,6.88824 70.6863024,6.88824 C68.8147488,6.88824 67.4167968,8.1508896 67.0560336,10.0449072" mask="url(#bubble-logo-vero-j)"/>
    <mask id="bubble-logo-vero-l" fill="#fff">
      <use xlink:href="#bubble-logo-vero-k"/>
    </mask>
    <path fill="#262626" fill-rule="nonzero" d="M10.025424,4.6922976 C8.4724704,4.6922976 6.9418512,5.3590032 5.7732912,6.6697776 L5.7732912,0.205848 L3.4608384,0.205848 L3.4608384,11.0882736 C3.4608384,11.0885328 3.4608384,11.088792 3.4608384,11.0890944 C3.4608384,14.621904 6.3247392,17.4858048 9.857592,17.4858048 C13.3904016,17.4858048 16.2543456,14.621904 16.2543456,11.0890944 C16.2543456,7.5562848 13.5582336,4.6922976 10.025424,4.6922976 M9.857592,15.0220224 C7.6854528,15.0220224 5.9245776,13.2611472 5.9245776,11.0890512 C5.9245776,8.916912 7.6854528,7.1560368 9.857592,7.1560368 C12.029688,7.1560368 13.7905632,8.916912 13.7905632,11.0890512 C13.7905632,13.2611904 12.029688,15.0220224 9.857592,15.0220224" mask="url(#bubble-logo-vero-l)"/>
    <mask id="bubble-logo-vero-n" fill="#fff">
      <use xlink:href="#bubble-logo-vero-m"/>
    </mask>
    <path fill="#00F" fill-rule="nonzero" d="M1.7796672,14.3221392 C0.9060336,14.3221392 0.197856,15.03036 0.197856,15.9039504 C0.197856,16.7775408 0.9060336,17.4857616 1.7796672,17.4857616 C2.6533008,17.4857616 3.3614784,16.7775408 3.3614784,15.9039504 C3.3614784,15.03036 2.6533008,14.3221392 1.7796672,14.3221392" mask="url(#bubble-logo-vero-n)"/>
  </g>
</svg>

<svg xmlns="http://www.w3.org/2000/svg" xmlns:xlink="http://www.w3.org/1999/xlink" width="77" height="50" viewBox="0 0 77 50"><defs><path id="a" d="M0 0h76.896v17.626H0z"/><path id="c" d="M0 0h76.896v17.626H0z"/><path id="e" d="M0 0h76.896v17.626H0z"/><path id="g" d="M0 0h76.896v17.626H0z"/><path id="i" d="M0 0h76.896v17.626H0z"/><path id="k" d="M0 0h76.896v17.626H0z"/><path id="m" d="M0 0h76.896v17.626H0z"/></defs><g fill="none" fill-rule="evenodd" transform="translate(0 15)"><mask id="b" fill="#fff"><use xlink:href="#a"/></mask><path fill="#262626" fill-rule="nonzero" d="M37.477 4.692c-1.553 0-3.084.667-4.252 1.978V.206h-2.313v10.883a6.397 6.397 0 0012.794 0c0-3.533-2.696-6.397-6.23-6.397m-.167 10.33a3.933 3.933 0 110-7.866 3.933 3.933 0 010 7.866" mask="url(#b)"/><mask id="d" fill="#fff"><use xlink:href="#c"/></mask><path fill="#262626" fill-rule="nonzero" d="M51.804 4.692c-1.553 0-3.083.667-4.252 1.978V.206H45.24v10.883a6.397 6.397 0 0012.793 0c0-3.533-2.696-6.397-6.229-6.397m-.168 10.33a3.933 3.933 0 110-7.866 3.933 3.933 0 010 7.866" mask="url(#d)"/><mask id="f" fill="#fff"><use xlink:href="#e"/></mask><path fill="#262626" fill-rule="nonzero" d="M17.9 12.21V5.04h2.48v7.147c0 1.826 1.06 2.999 2.842 2.999 1.804 0 2.841-1.128 2.841-2.999V5.039h2.503v7.17c0 3.315-2.007 5.277-5.344 5.277-3.247 0-5.321-2.03-5.321-5.276" mask="url(#f)"/><mask id="h" fill="#fff"><use xlink:href="#g"/></mask><path fill="#262626" fill-rule="nonzero" mask="url(#h)" d="M60.028.206h2.48v16.987h-2.48z"/><mask id="j" fill="#fff"><use xlink:href="#i"/></mask><path fill="#262626" fill-rule="nonzero" d="M76.549 12.074h-9.493c.36 1.894 1.691 3.18 4.036 3.18 1.376 0 3.044-.519 4.127-1.308l1.037 1.826c-1.24.925-3.202 1.691-5.254 1.691-4.555 0-6.516-3.179-6.516-6.38 0-1.827.563-3.338 1.713-4.533 1.15-1.195 2.661-1.804 4.487-1.804 1.736 0 3.18.541 4.284 1.646 1.105 1.105 1.669 2.593 1.669 4.487 0 .338-.023.744-.09 1.195m-9.493-2.03h7.08c-.203-1.916-1.623-3.156-3.45-3.156-1.871 0-3.27 1.263-3.63 3.157" mask="url(#j)"/><mask id="l" fill="#fff"><use xlink:href="#k"/></mask><path fill="#262626" fill-rule="nonzero" d="M10.025 4.692c-1.553 0-3.083.667-4.252 1.978V.206H3.461v10.883a6.397 6.397 0 0012.793 0c0-3.533-2.696-6.397-6.229-6.397m-.167 10.33a3.933 3.933 0 110-7.866 3.933 3.933 0 010 7.866" mask="url(#l)"/><mask id="n" fill="#fff"><use xlink:href="#m"/></mask><path fill="#00F" fill-rule="nonzero" d="M1.78 14.322a1.582 1.582 0 100 3.164 1.582 1.582 0 000-3.164" mask="url(#n)"/></g></svg>
